X:1
T:The Little Pilgrims
T:The Little Pilgrims
T:Lowell Mason, 1866
T:C. C. Carpenter, 1862
T:Public Domain Courtesy of the Cyber Hymnal™
C:Lowell Mason, 1866
Z:Public Domain
Z:Courtesy of the Cyber Hymnal™
%%score ( 1 2 ) 3
L:1/8
Q:1/4=95
M:6/8
K:E
V:1 treble 
V:2 treble 
V:3 bass 
V:1
 [GB] | [GB]2 [GB] ([EG][FA])[GB] | [Ac]2 [GB] [GB]2 [EG] | [FA]2 [FA] [EG]2 [EG] | %4
w: 1.~The|way to Heaven * is|nar- row, And its|bless- èd en- trance|
w: 2.~The|sun- beams of * the|morn- ing Make the|nar- row path so|
w: 3.~They|pass o’er rug- * ged|mount- ains, But they|climb them with a|
w: 4.~They|do not great- * ly|trem- ble When the|sha- dows night fore-|
w: 5.~They|know it leads * to|Hea- ven, With its|bright and o- pen|
 [DF]3 [EG]2 [FA] | [GB]2 [GB] ([EG][FA])[GB] | ([Ac]2 [ce]) ([ce][Ac])[FA] | %7
w: strait; But how|safe the lit- * tle|pil- * grims * Who|
w: fair; And these|ear- ly lit- * tle|pil- * grims * Find|
w: song; For these|ear- ly lit- * tle|pil- * grims * Have|
w: tell; For these|ear- ly lit- * tle|pil- * grims * Have|
w: gates, Where for|hap- py lit- * tle|pil- * grims * A|
 [EG]2 [GB] ([GB][FA])[DF] | E3 z |] %9
w: get with- in * the|gate!|
w: dew- y bless- * ings|there.|
w: san- dals new * and|strong.|
w: tried the path * so|well.|
w: Sav- ior’s wel- * come|waits.|
V:2
 x | x6 | x6 | x6 | x6 | x6 | x6 | x6 | E3 x |] %9
V:3
 E, | E,2 E, E,2 E, | E,2 E, E,2 E, | D,2 D, E,2 E, | B,,3 E,2 E, | E,2 E, E,2 E, | A,,3 A,,2 A,, | %7
 B,,2 B,, B,,2 B,, | E,3 z |] %9

